static/images/mobile/copyright/wikipedia-wordmark-azb.svg

<?xml version="1.0" encoding="UTF-8"?>
<svg width="93px" height="32px" viewBox="0 0 93 32" version="1.1" xmlns="http://www.w3.org/2000/svg" xmlns:xlink="http://www.w3.org/1999/xlink">
    <title>azb-wordmark</title>
    <g id="Page-1" stroke="none" stroke-width="1" fill="none" fill-rule="evenodd">
        <path d="M6.75432526,25.2456747 C7.52941176,25.9100346 8.19377163,26.4636678 8.96885813,27.349481 C8.52595156,28.0138408 8.08304498,28.567474 7.52941176,29.1211073 C6.75432526,28.3460208 5.97923875,27.7923875 5.20415225,27.1280277 C5.75778547,26.4636678 6.20069204,25.799308 6.75432526,25.2456747 Z M10.5190311,24.9134948 C11.2941176,25.5778547 11.9584775,26.1314879 12.733564,27.017301 C12.2906574,27.7923875 11.8477509,28.3460208 11.2941176,28.7889273 C10.5190311,28.0138408 9.74394464,27.4602076 8.96885813,26.7958478 C9.52249135,26.1314879 9.96539792,25.467128 10.5190311,24.9134948 Z M1.88235294,1.21799308 L1.99307958,1.32871972 C2.30311419,5.25582468 2.32378316,9.95457132 2.32516109,14.4346861 L2.32525952,16.4982699 C2.32525952,17.716263 2.98961938,18.2698962 3.76470588,18.6020761 C4.15840062,18.7989235 4.63958307,18.8207954 4.89718579,18.8232256 L5.20415225,18.8235294 L5.20322571,18.9480256 C5.27337237,18.939024 5.34744555,18.9342561 5.42560554,18.9342561 L5.64705882,18.9342561 L5.64705882,18.8235294 C7.30795848,18.8235294 8.6366782,18.7128028 9.52249135,18.4913495 C10.1868512,18.2698962 10.6297578,17.9377163 10.6297578,17.6055363 C10.6297578,16.7197232 9.74394464,14.8373702 8.6366782,12.8442907 C9.07958478,11.9584775 9.63321799,11.2941176 10.0761246,10.6297578 L10.1868512,10.6297578 C11.0726644,12.1799308 12.1799308,14.615917 12.1799308,16.6089965 C12.1799308,18.0484429 11.6262976,19.1557093 10.8512111,20.2629758 C9.96539792,21.1487889 8.6366782,21.4809689 5.64705882,21.4809689 L5.42560554,21.4809689 C5.04392202,21.4809689 4.76749397,21.3888703 4.5691096,21.245491 C3.31228375,21.175402 2.45570425,20.8363271 1.7716263,20.1522491 C0.553633218,18.9342561 0.553633218,17.6055363 0.553633218,14.7266436 C0.553633218,11.0726644 0.332179931,7.19723183 0,2.98961938 C0.664359862,2.21453287 1.21799308,1.66089965 1.88235294,1.21799308 Z M33.1072664,28.1245675 C33.8823529,28.7889273 34.5467128,29.3425606 35.3217993,30.2283737 C34.8788927,31.0034602 34.4359862,31.5570934 33.8823529,32 C33.1072664,31.2249135 32.3321799,30.6712803 31.5570934,30.0069204 C32.1107266,29.3425606 32.5536332,28.6782007 33.1072664,28.1245675 Z M30.449827,24.2491349 C31.2249135,24.9134948 31.8892734,25.467128 32.6643599,26.3529412 C32.1107266,27.1280277 31.7785467,27.6816609 31.2249135,28.1245675 C30.449827,27.349481 29.6747405,26.7958478 28.899654,26.1314879 C29.4532872,25.467128 29.8961938,24.8027682 30.449827,24.2491349 Z M34.2145329,24.0276817 C34.9896194,24.6920415 35.6539792,25.2456747 36.4290657,26.1314879 C35.8754325,26.9065744 35.5432526,27.349481 34.9896194,27.9031142 C34.2145329,27.1280277 33.4394464,26.5743945 32.6643599,25.9100346 C33.2179931,25.2456747 33.6608997,24.5813149 34.2145329,24.0276817 Z M23.4740484,7.08650519 L23.5847751,7.19723183 C24.3598616,9.96539792 24.9134948,12.9550173 25.467128,15.83391 C25.799308,17.716263 27.1280277,18.8235294 28.567474,18.8235294 L28.899654,18.8235294 L28.8978309,18.9376631 C28.9343685,18.935413 28.9718787,18.9342561 29.0103806,18.9342561 L29.2318339,18.9342561 L29.2318339,18.8235294 C30.8927336,18.8235294 32.2214533,18.7128028 33.1072664,18.4913495 C33.7716263,18.2698962 34.2145329,17.9377163 34.2145329,17.6055363 C34.2145329,16.7197232 33.3287197,14.8373702 32.2214533,12.8442907 C32.6643599,11.9584775 33.2179931,11.2941176 33.6608997,10.6297578 L33.7716263,10.6297578 C34.6574394,12.1799308 35.7647059,14.615917 35.7647059,16.6089965 C35.7647059,18.0484429 35.2110727,19.1557093 34.4359862,20.2629758 C33.550173,21.1487889 32.2214533,21.4809689 29.2318339,21.4809689 L29.0103806,21.4809689 C28.6280567,21.4809689 28.3513417,21.388561 28.1528868,21.2447688 C26.5728355,21.1268652 25.2952461,20.2922268 24.5813149,18.0484429 L24.4705882,18.0484429 C24.3598616,18.8235294 23.916955,19.3771626 23.0311419,19.9307958 C21.7024221,20.7058824 20.3737024,21.2595156 19.1557093,21.2595156 C16.9411765,21.2595156 15.7231834,19.9307958 15.7231834,17.6055363 C15.7231834,17.1626298 15.7231834,16.6089965 15.83391,16.16609 L16.6089965,16.0553633 C16.7197232,17.716263 17.4948097,18.7128028 19.3771626,18.7128028 C20.3737024,18.7128028 21.5916955,18.2698962 22.5882353,17.716263 C23.3633218,17.2733564 23.8062284,16.7197232 23.8062284,16.2768166 C23.8062284,14.9480969 23.1418685,12.4013841 22.1453287,9.07958478 C22.5882353,8.41522491 23.0311419,7.75086505 23.4740484,7.08650519 Z M73.7439446,25.2456747 C74.5190311,25.9100346 75.183391,26.4636678 75.9584775,27.349481 C75.4048443,28.0138408 75.0726644,28.567474 74.5190311,29.1211073 C73.7439446,28.3460208 72.9688581,27.7923875 72.1937716,27.1280277 C72.7474048,26.4636678 73.1903114,25.799308 73.7439446,25.2456747 Z M70.4221453,0 L70.532872,0.110726644 C70.0899654,0.885813149 69.6470588,1.7716263 68.982699,2.5467128 C67.7647059,2.87889273 66.1038062,3.43252595 64.5536332,3.98615917 C62.2283737,4.87197232 60.0138408,5.75778547 58.6851211,6.42214533 L58.6851211,6.53287197 C59.6816609,7.19723183 60.899654,7.75086505 61.6747405,8.08304498 L61.1211073,9.07958478 C63.2249135,10.9619377 65.6608997,13.7301038 68.3183391,16.8304498 C69.4256055,18.1591696 70.532872,18.8235294 72.083045,18.8235294 L72.4152249,18.8235294 L72.415,18.934 L72.5259516,18.9342561 L72.5259516,18.8235294 C74.1868512,18.8235294 75.5155709,18.7128028 76.4013841,18.4913495 C77.0657439,18.2698962 77.5086505,17.9377163 77.5086505,17.6055363 C77.5086505,16.7197232 76.6228374,14.8373702 75.5155709,12.8442907 C75.9584775,11.9584775 76.5121107,11.2941176 76.9550173,10.6297578 L77.0657439,10.6297578 C77.9515571,12.1799308 79.0588235,14.615917 79.0588235,16.6089965 C79.0588235,18.0484429 78.5051903,19.1557093 77.7301038,20.2629758 C76.8442907,21.1487889 75.5155709,21.4809689 72.5259516,21.4809689 L72.3044983,21.4809689 C71.9292188,21.4809689 71.6556924,21.391935 71.4580542,21.2526645 C69.3123739,21.1456829 68.0356605,19.8554416 66.6574394,18.1591696 C65.9930796,17.2733564 65.4394464,16.4982699 64.9965398,15.9446367 L64.8858131,15.9446367 C64.8858131,18.9342561 63.1141869,21.2595156 57.6885813,21.2595156 L57.245,21.259 L57.2456747,21.3702422 L56.1384083,21.3702422 C56.2491349,21.9238754 56.2491349,22.366782 56.2491349,22.8096886 C56.2491349,23.4740484 55.5847751,24.8027682 55.3633218,25.2456747 C52.816609,27.4602076 49.1626298,28.899654 46.283737,28.899654 C43.7370242,28.899654 42.0761246,28.0138408 40.9688581,26.7958478 C39.7508651,25.467128 39.3079585,23.5847751 39.3079585,21.3702422 C39.3079585,19.3771626 40.083045,16.8304498 41.1903114,14.9480969 L41.9653979,15.2802768 C41.1903114,17.2733564 40.7474048,18.8235294 40.7474048,20.1522491 C40.7474048,21.8131488 41.3010381,23.3633218 42.2975779,24.3598616 C43.5155709,25.5778547 45.1764706,26.2422145 47.0588235,26.2422145 C48.8304498,26.2422145 50.9342561,25.6885813 53.2595156,24.5813149 C54.1453287,24.1384083 54.8096886,23.5847751 55.0311419,23.2525952 C54.5882353,22.366782 52.4844291,21.4809689 49.384083,21.4809689 L49.2733564,21.2595156 L50.6020761,19.0449827 L56.2029013,19.0440503 C56.4117952,18.8510092 56.7141403,18.7128028 57.1349481,18.7128028 L58.0207612,18.7128028 C59.5709343,18.7128028 61.4532872,18.4913495 62.7820069,17.6055363 C63.2249135,17.384083 63.7785467,16.9411765 63.7785467,16.6089965 C63.7785467,16.16609 63.5570934,15.7231834 63.3356401,15.2802768 C62.5605536,13.5086505 60.567474,11.4048443 58.5743945,9.41176471 L58.2229247,9.05907984 C57.8348498,8.6667521 57.5286428,8.34140715 57.3564014,8.08304498 C57.2456747,7.75086505 57.2456747,7.41868512 57.2456747,6.97577855 C57.2456747,6.42214533 57.467128,5.86851211 57.799308,5.31487889 C57.9100346,5.09342561 58.2422145,4.76124567 58.4636678,4.53979239 C60.4567474,3.21107266 65.1072664,1.66089965 70.4221453,0 Z M77.5086505,24.9134948 C78.283737,25.5778547 78.9480969,26.1314879 79.7231834,27.017301 C79.1695502,27.7923875 78.8373702,28.3460208 78.283737,28.7889273 C77.5086505,28.0138408 76.733564,27.4602076 75.9584775,26.7958478 C76.5121107,26.1314879 76.9550173,25.467128 77.5086505,24.9134948 Z M89.0242215,19.266436 C86.6989619,19.266436 84.816609,18.1591696 84.816609,15.6124567 C84.816609,14.283737 85.2595156,13.2871972 86.0346021,12.2906574 C86.9204152,11.2941176 87.916955,10.6297578 88.8027682,10.6297578 C89.9100346,10.6297578 91.017301,11.4048443 91.7923875,12.8442907 C92.567474,14.1730104 93.0103806,16.0553633 93.0103806,18.1591696 C93.0103806,19.9307958 92.567474,21.7024221 91.5709343,23.2525952 C89.799308,25.9100346 88.1384083,26.9065744 86.5882353,26.9065744 C84.816609,26.9065744 82.9342561,26.3529412 81.0519031,25.0242215 L81.384083,24.3598616 C82.3806228,24.8027682 83.266436,25.0242215 84.2629758,25.0242215 C86.2560554,25.0242215 88.2491349,24.0276817 90.0207612,22.0346021 C90.9065744,21.0380623 91.6816609,19.9307958 91.9031142,18.8235294 C90.6851211,19.1557093 89.9100346,19.266436 89.0242215,19.266436 Z M88.1384083,13.0657439 C87.2525952,13.0657439 85.9238754,14.0622837 85.9238754,14.8373702 C85.9238754,16.0553633 87.5847751,16.9411765 89.2456747,16.9411765 C90.0207612,16.9411765 90.7958478,16.8304498 91.4602076,16.7197232 C90.9065744,14.615917 89.799308,13.0657439 88.1384083,13.0657439 Z" id="azb-wordmark" fill="#000000" fill-rule="nonzero"></path>
    </g>
</svg>

<svg xmlns="http://www.w3.org/2000/svg" width="93" height="32"><path fill="#000" fill-rule="nonzero" d="M6.754 25.246c.775.664 1.44 1.218 2.215 2.103a11.18 11.18 0 0 1-1.44 1.772c-.775-.775-1.55-1.329-2.325-1.993.554-.664.997-1.329 1.55-1.882Zm3.765-.333c.775.665 1.44 1.218 2.215 2.104-.443.775-.886 1.329-1.44 1.772-.775-.775-1.55-1.329-2.325-1.993.553-.665.996-1.329 1.55-1.883ZM1.882 1.218l.111.11c.31 3.928.33 8.627.332 13.107v2.063c0 1.218.665 1.772 1.44 2.104.393.197.875.219 1.132.221h.307v.125c.07-.009.143-.014.222-.014h.221v-.11c1.661 0 2.99-.111 3.875-.333.665-.221 1.108-.553 1.108-.885 0-.886-.886-2.769-1.993-4.762.443-.886.996-1.55 1.44-2.214h.11c.886 1.55 1.993 3.986 1.993 5.979 0 1.44-.554 2.547-1.329 3.654-.886.886-2.214 1.218-5.204 1.218h-.221c-.382 0-.659-.092-.857-.236-1.257-.07-2.113-.409-2.797-1.093C.554 18.934.554 17.606.554 14.727.554 11.073.332 7.197 0 2.99c.664-.775 1.218-1.33 1.882-1.772Zm31.225 26.907c.775.664 1.44 1.218 2.215 2.103-.443.775-.886 1.33-1.44 1.772-.775-.775-1.55-1.329-2.325-1.993.554-.664.997-1.329 1.55-1.882Zm-2.657-3.876c.775.664 1.44 1.218 2.214 2.104-.553.775-.885 1.329-1.44 1.772-.774-.776-1.55-1.33-2.324-1.994.553-.664.996-1.328 1.55-1.882Zm3.765-.221c.775.664 1.439 1.218 2.214 2.103-.554.776-.886 1.218-1.44 1.772-.774-.775-1.55-1.329-2.325-1.993.554-.664.997-1.329 1.55-1.882ZM23.474 7.087l.11.11c.776 2.768 1.33 5.758 1.883 8.637.332 1.882 1.661 2.99 3.1 2.99h.333l-.002.114a1.83 1.83 0 0 1 .112-.004h.222v-.11c1.66 0 2.99-.111 3.875-.333.665-.221 1.108-.553 1.108-.885 0-.886-.886-2.769-1.994-4.762.443-.886.997-1.55 1.44-2.214h.11c.886 1.55 1.994 3.986 1.994 5.979 0 1.44-.554 2.547-1.329 3.654-.886.886-2.215 1.218-5.204 1.218h-.222c-.382 0-.659-.092-.857-.236-1.58-.118-2.858-.953-3.572-3.197h-.11c-.111.776-.554 1.33-1.44 1.883-1.329.775-2.657 1.329-3.875 1.329-2.215 0-3.433-1.33-3.433-3.654 0-.443 0-.997.11-1.44l.776-.11c.11 1.66.886 2.657 2.768 2.657.997 0 2.215-.443 3.211-.997.775-.443 1.218-.996 1.218-1.44 0-1.328-.664-3.875-1.66-7.196.442-.665.885-1.33 1.328-1.993Zm50.27 18.159c.775.664 1.44 1.218 2.214 2.103-.553.665-.885 1.218-1.439 1.772-.775-.775-1.55-1.329-2.325-1.993.553-.664.996-1.329 1.55-1.882ZM70.422 0l.11.11c-.442.776-.885 1.662-1.55 2.437-1.217.332-2.878.886-4.428 1.44-2.326.885-4.54 1.77-5.869 2.435v.11c.997.665 2.215 1.219 2.99 1.551l-.554.997c2.104 1.882 4.54 4.65 7.197 7.75 1.108 1.33 2.215 1.994 3.765 1.994h.332v.11h.111v-.11c1.66 0 2.99-.111 3.875-.333.665-.221 1.108-.553 1.108-.885 0-.886-.886-2.769-1.993-4.762.442-.886.996-1.55 1.439-2.214h.11c.887 1.55 1.994 3.986 1.994 5.979 0 1.44-.554 2.547-1.329 3.654-.886.886-2.214 1.218-5.204 1.218h-.222c-.375 0-.648-.09-.846-.228-2.146-.107-3.422-1.398-4.8-3.094-.665-.886-1.219-1.66-1.661-2.214h-.111c0 2.99-1.772 5.315-7.197 5.315l-.444-.001v.111h-1.107c.111.554.111.997.111 1.44 0 .664-.664 1.993-.886 2.436-2.546 2.214-6.2 3.654-9.08 3.654-2.546 0-4.207-.886-5.314-2.104-1.218-1.329-1.661-3.211-1.661-5.426 0-1.993.775-4.54 1.882-6.422l.775.332c-.775 1.993-1.218 3.544-1.218 4.872 0 1.661.554 3.211 1.55 4.208 1.219 1.218 2.88 1.882 4.762 1.882 1.771 0 3.875-.553 6.2-1.66.886-.444 1.55-.997 1.772-1.33-.443-.885-2.547-1.771-5.647-1.771l-.11-.221 1.328-2.215h5.6c.21-.194.512-.332.933-.332h.886c1.55 0 3.432-.222 4.761-1.107.443-.222.997-.665.997-.997 0-.443-.222-.886-.443-1.329-.775-1.771-2.769-3.875-4.762-5.868l-.351-.353c-.388-.392-.694-.718-.867-.976-.11-.332-.11-.664-.11-1.107 0-.554.221-1.107.553-1.661.111-.222.443-.554.665-.775C60.457 3.21 65.107 1.66 70.422 0Zm7.087 24.913c.775.665 1.44 1.218 2.214 2.104-.553.775-.886 1.329-1.44 1.772-.774-.775-1.55-1.329-2.325-1.993.554-.665.997-1.329 1.55-1.883Zm11.515-5.647c-2.325 0-4.207-1.107-4.207-3.654 0-1.328.443-2.325 1.218-3.321.885-.997 1.882-1.661 2.768-1.661 1.107 0 2.214.775 2.99 2.214.774 1.329 1.217 3.211 1.217 5.315 0 1.772-.443 3.543-1.44 5.094-1.77 2.657-3.432 3.654-4.982 3.654-1.771 0-3.654-.554-5.536-1.883l.332-.664c.997.443 1.882.664 2.879.664 1.993 0 3.986-.996 5.758-2.99.886-.996 1.66-2.103 1.882-3.21-1.218.332-1.993.442-2.879.442Zm-.886-6.2c-.885 0-2.214.996-2.214 1.771 0 1.218 1.66 2.104 3.322 2.104.775 0 1.55-.11 2.214-.221-.553-2.104-1.66-3.654-3.322-3.654Z"/></svg>
